public/luts/VLog_to_AutumnBreeze.cube
TITLE "Autumn Breeze V-Log (Film Emulation)"
LUT_3D_SIZE 5
DOMAIN_MIN 0.0 0.0 0.0
DOMAIN_MAX 1.0 1.0 1.0
0.405513 0.405513 0.405513
0.437256 0.410195 0.405513
0.734904 0.465791 0.405513
0.972120 0.546164 0.405513
0.972120 0.546164 0.405513
0.405513 0.427650 0.405513
0.433129 0.432038 0.405513
0.732457 0.484581 0.405513
0.972120 0.562852 0.405513
0.972120 0.562852 0.405513
0.405513 0.649769 0.405513
0.405513 0.652759 0.405513
0.699686 0.690051 0.405513
0.972120 0.753429 0.405513
0.972120 0.753429 0.405513
0.405513 0.928615 0.405513
0.405513 0.931096 0.405513
0.660722 0.967406 0.405513
0.972120 0.972120 0.405513
0.972120 0.972120 0.405513
0.405513 0.928615 0.405513
0.405513 0.931096 0.405513
0.660722 0.967406 0.405513
0.972120 0.972120 0.405513
0.972120 0.972120 0.405513
0.405513 0.405513 0.433931
0.435828 0.408704 0.431736
0.734055 0.464519 0.405513
0.972120 0.545124 0.405513
0.972120 0.545124 0.405513
0.405513 0.426235 0.431280
0.431684 0.430640 0.429068
0.731604 0.483370 0.405513
0.972120 0.561697 0.405513
0.972120 0.561697 0.405513
0.405513 0.648809 0.405513
0.405513 0.651804 0.405513
0.698780 0.689163 0.405513
0.972120 0.752594 0.405513
0.972120 0.752594 0.405513
0.405513 0.927929 0.405513
0.405513 0.930464 0.405513
0.659866 0.966805 0.405513
0.972120 0.972120 0.405513
0.972120 0.972120 0.405513
0.405513 0.927929 0.405513
0.405513 0.930464 0.405513
0.659866 0.966805 0.405513
0.972120 0.972120 0.405513
0.972120 0.972120 0.405513
0.405513 0.405513 0.706671
0.416739 0.405513 0.705312
0.722921 0.447600 0.687363
0.972120 0.531393 0.654740
0.972120 0.531393 0.654740
0.405513 0.407311 0.705030
0.412355 0.411968 0.703667
0.720420 0.467306 0.685662
0.972120 0.547404 0.652929
0.972120 0.547404 0.652929
0.405513 0.636177 0.683277
0.405513 0.639249 0.681857
0.686896 0.677499 0.663078
0.972120 0.741649 0.630962
0.972120 0.741649 0.630962
0.405513 0.919298 0.643563
0.405513 0.922212 0.642604
0.648633 0.958964 0.629983
0.972120 0.972120 0.607310
0.972120 0.972120 0.607310
0.405513 0.919298 0.643563
0.405513 0.922212 0.642604
0.648633 0.958964 0.629983
0.972120 0.972120 0.607310
0.972120 0.972120 0.607310
0.405513 0.405513 0.972120
0.405513 0.405513 0.972120
0.703083 0.416233 0.972120
0.972120 0.506475 0.972120
0.972120 0.506475 0.972120
0.405513 0.405513 0.972120
0.405513 0.405513 0.972120
0.700491 0.437706 0.972120
0.972120 0.523455 0.972120
0.972120 0.523455 0.972120
0.405513 0.613494 0.972120
0.405513 0.616712 0.972120
0.665650 0.656651 0.972120
0.972120 0.723969 0.972120
0.972120 0.723969 0.972120
0.405513 0.904702 0.972120
0.405513 0.907678 0.972120
0.628552 0.945175 0.972120
0.972120 0.972120 0.968246
0.972120 0.972120 0.968246
0.405513 0.904702 0.972120
0.405513 0.907678 0.972120
0.628552 0.945175 0.972120
0.972120 0.972120 0.968246
0.972120 0.972120 0.968246
0.405513 0.405513 0.972120
0.405513 0.405513 0.972120
0.703083 0.416233 0.972120
0.972120 0.506475 0.972120
0.972120 0.506475 0.972120
0.405513 0.405513 0.972120
0.405513 0.405513 0.972120
0.700491 0.437706 0.972120
0.972120 0.523455 0.972120
0.972120 0.523455 0.972120
0.405513 0.613494 0.972120
0.405513 0.616712 0.972120
0.665650 0.656651 0.972120
0.972120 0.723969 0.972120
0.972120 0.723969 0.972120
0.405513 0.904702 0.972120
0.405513 0.907678 0.972120
0.628552 0.945175 0.972120
0.972120 0.972120 0.968246
0.972120 0.972120 0.968246
0.405513 0.904702 0.972120
0.405513 0.907678 0.972120
0.628552 0.945175 0.972120
0.972120 0.972120 0.968246
0.972120 0.972120 0.968246
