public/luts/VLog_to_AutumnBreeze.cube
TITLE "Autumn Breeze V-Log (Film Emulation)"
LUT_3D_SIZE 9
DOMAIN_MIN 0.0 0.0 0.0
DOMAIN_MAX 1.0 1.0 1.0
0.405513 0.405513 0.405513
0.405513 0.405513 0.405513
0.437256 0.410195 0.405513
0.519163 0.423960 0.405513
0.734904 0.465791 0.405513
0.972120 0.546164 0.405513
0.972120 0.546164 0.405513
0.972120 0.546164 0.405513
0.972120 0.546164 0.405513
0.405513 0.405513 0.405513
0.405513 0.405513 0.405513
0.437256 0.410195 0.405513
0.519163 0.423960 0.405513
0.734904 0.465791 0.405513
0.972120 0.546164 0.405513
0.972120 0.546164 0.405513
0.972120 0.546164 0.405513
0.972120 0.546164 0.405513
0.405513 0.427650 0.405513
0.405513 0.427650 0.405513
0.433129 0.432038 0.405513
0.515842 0.444973 0.405513
0.732457 0.484581 0.405513
0.972120 0.562852 0.405513
0.972120 0.562852 0.405513
0.972120 0.562852 0.405513
0.972120 0.562852 0.405513
0.405513 0.487201 0.405513
0.405513 0.487201 0.405513
0.420347 0.490934 0.405513
0.505635 0.502007 0.405513
0.724995 0.536460 0.405513
0.972120 0.612881 0.405513
0.972120 0.612881 0.405513
0.972120 0.612881 0.405513
0.972120 0.612881 0.405513
0.405513 0.649769 0.405513
0.405513 0.649769 0.405513
0.405513 0.652759 0.405513
0.470027 0.661689 0.405513
0.699686 0.690051 0.405513
0.972120 0.753429 0.405513
0.972120 0.753429 0.405513
0.972120 0.753429 0.405513
0.972120 0.753429 0.405513
0.405513 0.928615 0.405513
0.405513 0.928615 0.405513
0.405513 0.931096 0.405513
0.405513 0.939721 0.405513
0.660722 0.967406 0.405513
0.972120 0.972120 0.405513
0.972120 0.972120 0.405513
0.972120 0.972120 0.405513
0.972120 0.972120 0.405513
0.405513 0.928615 0.405513
0.405513 0.928615 0.405513
0.405513 0.931096 0.405513
0.405513 0.939721 0.405513
0.660722 0.967406 0.405513
0.972120 0.972120 0.405513
0.972120 0.972120 0.405513
0.972120 0.972120 0.405513
0.972120 0.972120 0.405513
0.405513 0.928615 0.405513
0.405513 0.928615 0.405513
0.405513 0.931096 0.405513
0.405513 0.939721 0.405513
0.660722 0.967406 0.405513
0.972120 0.972120 0.405513
0.972120 0.972120 0.405513
0.972120 0.972120 0.405513
0.972120 0.972120 0.405513
0.405513 0.928615 0.405513
0.405513 0.928615 0.405513
0.405513 0.931096 0.405513
0.405513 0.939721 0.405513
0.660722 0.967406 0.405513
0.972120 0.972120 0.405513
0.972120 0.972120 0.405513
0.972120 0.972120 0.405513
0.972120 0.972120 0.405513
0.405513 0.405513 0.405513
0.405513 0.405513 0.405513
0.437256 0.410195 0.405513
0.519163 0.423960 0.405513
0.734904 0.465791 0.405513
0.972120 0.546164 0.405513
0.972120 0.546164 0.405513
0.972120 0.546164 0.405513
0.972120 0.546164 0.405513
0.405513 0.405513 0.405513
0.405513 0.405513 0.405513
0.437256 0.410195 0.405513
0.519163 0.423960 0.405513
0.734904 0.465791 0.405513
0.972120 0.546164 0.405513
0.972120 0.546164 0.405513
0.972120 0.546164 0.405513
0.972120 0.546164 0.405513
0.405513 0.427650 0.405513
0.405513 0.427650 0.405513
0.433129 0.432038 0.405513
0.515842 0.444973 0.405513
0.732457 0.484581 0.405513
0.972120 0.562852 0.405513
0.972120 0.562852 0.405513
0.972120 0.562852 0.405513
0.972120 0.562852 0.405513
0.405513 0.487201 0.405513
0.405513 0.487201 0.405513
0.420347 0.490934 0.405513
0.505635 0.502007 0.405513
0.724995 0.536460 0.405513
0.972120 0.612881 0.405513
0.972120 0.612881 0.405513
0.972120 0.612881 0.405513
0.972120 0.612881 0.405513
0.405513 0.649769 0.405513
0.405513 0.649769 0.405513
0.405513 0.652759 0.405513
0.470027 0.661689 0.405513
0.699686 0.690051 0.405513
0.972120 0.753429 0.405513
0.972120 0.753429 0.405513
0.972120 0.753429 0.405513
0.972120 0.753429 0.405513
0.405513 0.928615 0.405513
0.405513 0.928615 0.405513
0.405513 0.931096 0.405513
0.405513 0.939721 0.405513
0.660722 0.967406 0.405513
0.972120 0.972120 0.405513
0.972120 0.972120 0.405513
0.972120 0.972120 0.405513
0.972120 0.972120 0.405513
0.405513 0.928615 0.405513
0.405513 0.928615 0.405513
0.405513 0.931096 0.405513
0.405513 0.939721 0.405513
0.660722 0.967406 0.405513
0.972120 0.972120 0.405513
0.972120 0.972120 0.405513
0.972120 0.972120 0.405513
0.972120 0.972120 0.405513
0.405513 0.928615 0.405513
0.405513 0.928615 0.405513
0.405513 0.931096 0.405513
0.405513 0.939721 0.405513
0.660722 0.967406 0.405513
0.972120 0.972120 0.405513
0.972120 0.972120 0.405513
0.972120 0.972120 0.405513
0.972120 0.972120 0.405513
0.405513 0.928615 0.405513
0.405513 0.928615 0.405513
0.405513 0.931096 0.405513
0.405513 0.939721 0.405513
0.660722 0.967406 0.405513
0.972120 0.972120 0.405513
0.972120 0.972120 0.405513
0.972120 0.972120 0.405513
0.972120 0.972120 0.405513
0.405513 0.405513 0.433931
0.405513 0.405513 0.433931
0.435828 0.408704 0.431736
0.518012 0.422529 0.425017
0.734055 0.464519 0.405513
0.972120 0.545124 0.405513
0.972120 0.545124 0.405513
0.972120 0.545124 0.405513
0.972120 0.545124 0.405513
0.405513 0.405513 0.433931
0.405513 0.405513 0.433931
0.435828 0.408704 0.431736
0.518012 0.422529 0.425017
0.734055 0.464519 0.405513
0.972120 0.545124 0.405513
0.972120 0.545124 0.405513
0.972120 0.545124 0.405513
0.972120 0.545124 0.405513
0.405513 0.426235 0.431280
0.405513 0.426235 0.431280
0.431684 0.430640 0.429068
0.514681 0.443626 0.422296
0.731604 0.483370 0.405513
0.972120 0.561697 0.405513
0.972120 0.561697 0.405513
0.972120 0.561697 0.405513
0.972120 0.561697 0.405513
0.405513 0.485998 0.423142
0.405513 0.485998 0.423142
0.418846 0.489743 0.420877
0.504445 0.500850 0.413939
0.724130 0.535395 0.405513
0.972120 0.611846 0.405513
0.972120 0.611846 0.405513
0.972120 0.611846 0.405513
0.972120 0.611846 0.405513
0.405513 0.648809 0.405513
0.405513 0.648809 0.405513
0.405513 0.651804 0.405513
0.468722 0.660751 0.405513
0.698780 0.689163 0.405513
0.972120 0.752594 0.405513
0.972120 0.752594 0.405513
0.972120 0.752594 0.405513
0.972120 0.752594 0.405513
0.405513 0.927929 0.405513
0.405513 0.927929 0.405513
0.405513 0.930464 0.405513
0.405513 0.939096 0.405513
0.659866 0.966805 0.405513
0.972120 0.972120 0.405513
0.972120 0.972120 0.405513
0.972120 0.972120 0.405513
0.972120 0.972120 0.405513
0.405513 0.927929 0.405513
0.405513 0.927929 0.405513
0.405513 0.930464 0.405513
0.405513 0.939096 0.405513
0.659866 0.966805 0.405513
0.972120 0.972120 0.405513
0.972120 0.972120 0.405513
0.972120 0.972120 0.405513
0.972120 0.972120 0.405513
0.405513 0.927929 0.405513
0.405513 0.927929 0.405513
0.405513 0.930464 0.405513
0.405513 0.939096 0.405513
0.659866 0.966805 0.405513
0.972120 0.972120 0.405513
0.972120 0.972120 0.405513
0.972120 0.972120 0.405513
0.972120 0.972120 0.405513
0.405513 0.927929 0.405513
0.405513 0.927929 0.405513
0.405513 0.930464 0.405513
0.405513 0.939096 0.405513
0.659866 0.966805 0.405513
0.972120 0.972120 0.405513
0.972120 0.972120 0.405513
0.972120 0.972120 0.405513
0.972120 0.972120 0.405513
0.405513 0.405513 0.508285
0.405513 0.405513 0.508285
0.431475 0.405513 0.506486
0.514514 0.418167 0.501001
0.731481 0.460647 0.482379
0.972120 0.541965 0.436591
0.972120 0.541965 0.436591
0.972120 0.541965 0.436591
0.972120 0.541965 0.436591
0.405513 0.405513 0.508285
0.405513 0.405513 0.508285
0.431475 0.405513 0.506486
0.514514 0.418167 0.501001
0.731481 0.460647 0.482379
0.972120 0.541965 0.436591
0.972120 0.541965 0.436591
0.972120 0.541965 0.436591
0.972120 0.541965 0.436591
0.405513 0.421920 0.506113
0.405513 0.421920 0.506113
0.427278 0.426381 0.504305
0.511154 0.439523 0.498789
0.729019 0.479688 0.480058
0.972120 0.558187 0.433960
0.972120 0.558187 0.433960
0.972120 0.558187 0.433960
0.972120 0.558187 0.433960
0.405513 0.482342 0.499476
0.405513 0.482342 0.499476
0.414271 0.486122 0.497637
0.500826 0.497330 0.492027
0.721510 0.532163 0.472957
0.972120 0.608702 0.425886
0.972120 0.608702 0.425886
0.972120 0.608702 0.425886
0.972120 0.608702 0.425886
0.405513 0.645895 0.476792
0.405513 0.645895 0.476792
0.405513 0.648907 0.474842
0.464750 0.657906 0.468886
0.696035 0.686469 0.448570
0.972120 0.750063 0.405513
0.972120 0.750063 0.405513
0.972120 0.750063 0.405513
0.972120 0.750063 0.405513
0.405513 0.925850 0.419802
0.405513 0.925850 0.419802
0.405513 0.928550 0.418157
0.405513 0.937206 0.413796
0.657272 0.964986 0.405513
0.972120 0.972120 0.405513
0.972120 0.972120 0.405513
0.972120 0.972120 0.405513
0.972120 0.972120 0.405513
0.405513 0.925850 0.419802
0.405513 0.925850 0.419802
0.405513 0.928550 0.418157
0.405513 0.937206 0.413796
0.657272 0.964986 0.405513
0.972120 0.972120 0.405513
0.972120 0.972120 0.405513
0.972120 0.972120 0.405513
0.972120 0.972120 0.405513
0.405513 0.925850 0.419802
0.405513 0.925850 0.419802
0.405513 0.928550 0.418157
0.405513 0.937206 0.413796
0.657272 0.964986 0.405513
0.972120 0.972120 0.405513
0.972120 0.972120 0.405513
0.972120 0.972120 0.405513
0.972120 0.972120 0.405513
0.405513 0.925850 0.419802
0.405513 0.925850 0.419802
0.405513 0.928550 0.418157
0.405513 0.937206 0.413796
0.657272 0.964986 0.405513
0.972120 0.972120 0.405513
0.972120 0.972120 0.405513
0.972120 0.972120 0.405513
0.972120 0.972120 0.405513
0.405513 0.405513 0.706671
0.405513 0.405513 0.706671
0.416739 0.405513 0.705312
0.502776 0.405513 0.701184
0.722921 0.447600 0.687363
0.972120 0.531393 0.654740
0.972120 0.531393 0.654740
0.972120 0.531393 0.654740
0.972120 0.531393 0.654740
0.405513 0.405513 0.706671
0.405513 0.405513 0.706671
0.416739 0.405513 0.705312
0.502776 0.405513 0.701184
0.722921 0.447600 0.687363
0.972120 0.531393 0.654740
0.972120 0.531393 0.654740
0.972120 0.531393 0.654740
0.972120 0.531393 0.654740
0.405513 0.407311 0.705030
0.405513 0.407311 0.705030
0.412355 0.411968 0.703667
0.499317 0.425662 0.699527
0.720420 0.467306 0.685662
0.972120 0.547404 0.652929
0.972120 0.547404 0.652929
0.972120 0.547404 0.652929
0.972120 0.547404 0.652929
0.405513 0.470047 0.700041
0.405513 0.470047 0.700041
0.405513 0.473951 0.698665
0.488671 0.485512 0.694486
0.712794 0.521337 0.680488
0.972120 0.598199 0.647413
0.972120 0.598199 0.647413
0.972120 0.598199 0.647413
0.972120 0.598199 0.647413
0.405513 0.636177 0.683277
0.405513 0.636177 0.683277
0.405513 0.639249 0.681857
0.451361 0.648421 0.677543
0.686896 0.677499 0.663078
0.972120 0.741649 0.630962
0.972120 0.741649 0.630962
0.972120 0.741649 0.630962
0.972120 0.741649 0.630962
0.405513 0.919298 0.643563
0.405513 0.919298 0.643563
0.405513 0.922212 0.642604
0.405513 0.930945 0.639692
0.648633 0.958964 0.629983
0.972120 0.972120 0.607310
0.972120 0.972120 0.607310
0.972120 0.972120 0.607310
0.972120 0.972120 0.607310
0.405513 0.919298 0.643563
0.405513 0.919298 0.643563
0.405513 0.922212 0.642604
0.405513 0.930945 0.639692
0.648633 0.958964 0.629983
0.972120 0.972120 0.607310
0.972120 0.972120 0.607310
0.972120 0.972120 0.607310
0.972120 0.972120 0.607310
0.405513 0.919298 0.643563
0.405513 0.919298 0.643563
0.405513 0.922212 0.642604
0.405513 0.930945 0.639692
0.648633 0.958964 0.629983
0.972120 0.972120 0.607310
0.972120 0.972120 0.607310
0.972120 0.972120 0.607310
0.972120 0.972120 0.607310
0.405513 0.919298 0.643563
0.405513 0.919298 0.643563
0.405513 0.922212 0.642604
0.405513 0.930945 0.639692
0.648633 0.958964 0.629983
0.972120 0.972120 0.607310
0.972120 0.972120 0.607310
0.972120 0.972120 0.607310
0.972120 0.972120 0.607310
0.405513 0.405513 0.972120
0.405513 0.405513 0.972120
0.405513 0.405513 0.972120
0.474904 0.405513 0.972120
0.703083 0.416233 0.972120
0.972120 0.506475 0.972120
0.972120 0.506475 0.972120
0.972120 0.506475 0.972120
0.972120 0.506475 0.972120
0.405513 0.405513 0.972120
0.405513 0.405513 0.972120
0.405513 0.405513 0.972120
0.474904 0.405513 0.972120
0.703083 0.416233 0.972120
0.972120 0.506475 0.972120
0.972120 0.506475 0.972120
0.972120 0.506475 0.972120
0.972120 0.506475 0.972120
0.405513 0.405513 0.972120
0.405513 0.405513 0.972120
0.405513 0.405513 0.972120
0.471185 0.405513 0.972120
0.700491 0.437706 0.972120
0.972120 0.523455 0.972120
0.972120 0.523455 0.972120
0.972120 0.523455 0.972120
0.972120 0.523455 0.972120
0.405513 0.440679 0.972120
0.405513 0.440679 0.972120
0.405513 0.444907 0.972120
0.459714 0.457393 0.972120
0.692577 0.495775 0.972120
0.972120 0.573563 0.972120
0.972120 0.573563 0.972120
0.972120 0.573563 0.972120
0.972120 0.573563 0.972120
0.405513 0.613494 0.972120
0.405513 0.613494 0.972120
0.405513 0.616712 0.972120
0.419133 0.626310 0.972120
0.665650 0.656651 0.972120
0.972120 0.723969 0.972120
0.972120 0.723969 0.972120
0.972120 0.723969 0.972120
0.972120 0.723969 0.972120
0.405513 0.904702 0.972120
0.405513 0.904702 0.972120
0.405513 0.907678 0.972120
0.405513 0.916594 0.972120
0.628552 0.945175 0.972120
0.972120 0.972120 0.968246
0.972120 0.972120 0.968246
0.972120 0.972120 0.968246
0.972120 0.972120 0.968246
0.405513 0.904702 0.972120
0.405513 0.904702 0.972120
0.405513 0.907678 0.972120
0.405513 0.916594 0.972120
0.628552 0.945175 0.972120
0.972120 0.972120 0.968246
0.972120 0.972120 0.968246
0.972120 0.972120 0.968246
0.972120 0.972120 0.968246
0.405513 0.904702 0.972120
0.405513 0.904702 0.972120
0.405513 0.907678 0.972120
0.405513 0.916594 0.972120
0.628552 0.945175 0.972120
0.972120 0.972120 0.968246
0.972120 0.972120 0.968246
0.972120 0.972120 0.968246
0.972120 0.972120 0.968246
0.405513 0.904702 0.972120
0.405513 0.904702 0.972120
0.405513 0.907678 0.972120
0.405513 0.916594 0.972120
0.628552 0.945175 0.972120
0.972120 0.972120 0.968246
0.972120 0.972120 0.968246
0.972120 0.972120 0.968246
0.972120 0.972120 0.968246
0.405513 0.405513 0.972120
0.405513 0.405513 0.972120
0.405513 0.405513 0.972120
0.474904 0.405513 0.972120
0.703083 0.416233 0.972120
0.972120 0.506475 0.972120
0.972120 0.506475 0.972120
0.972120 0.506475 0.972120
0.972120 0.506475 0.972120
0.405513 0.405513 0.972120
0.405513 0.405513 0.972120
0.405513 0.405513 0.972120
0.474904 0.405513 0.972120
0.703083 0.416233 0.972120
0.972120 0.506475 0.972120
0.972120 0.506475 0.972120
0.972120 0.506475 0.972120
0.972120 0.506475 0.972120
0.405513 0.405513 0.972120
0.405513 0.405513 0.972120
0.405513 0.405513 0.972120
0.471185 0.405513 0.972120
0.700491 0.437706 0.972120
0.972120 0.523455 0.972120
0.972120 0.523455 0.972120
0.972120 0.523455 0.972120
0.972120 0.523455 0.972120
0.405513 0.440679 0.972120
0.405513 0.440679 0.972120
0.405513 0.444907 0.972120
0.459714 0.457393 0.972120
0.692577 0.495775 0.972120
0.972120 0.573563 0.972120
0.972120 0.573563 0.972120
0.972120 0.573563 0.972120
0.972120 0.573563 0.972120
0.405513 0.613494 0.972120
0.405513 0.613494 0.972120
0.405513 0.616712 0.972120
0.419133 0.626310 0.972120
0.665650 0.656651 0.972120
0.972120 0.723969 0.972120
0.972120 0.723969 0.972120
0.972120 0.723969 0.972120
0.972120 0.723969 0.972120
0.405513 0.904702 0.972120
0.405513 0.904702 0.972120
0.405513 0.907678 0.972120
0.405513 0.916594 0.972120
0.628552 0.945175 0.972120
0.972120 0.972120 0.968246
0.972120 0.972120 0.968246
0.972120 0.972120 0.968246
0.972120 0.972120 0.968246
0.405513 0.904702 0.972120
0.405513 0.904702 0.972120
0.405513 0.907678 0.972120
0.405513 0.916594 0.972120
0.628552 0.945175 0.972120
0.972120 0.972120 0.968246
0.972120 0.972120 0.968246
0.972120 0.972120 0.968246
0.972120 0.972120 0.968246
0.405513 0.904702 0.972120
0.405513 0.904702 0.972120
0.405513 0.907678 0.972120
0.405513 0.916594 0.972120
0.628552 0.945175 0.972120
0.972120 0.972120 0.968246
0.972120 0.972120 0.968246
0.972120 0.972120 0.968246
0.972120 0.972120 0.968246
0.405513 0.904702 0.972120
0.405513 0.904702 0.972120
0.405513 0.907678 0.972120
0.405513 0.916594 0.972120
0.628552 0.945175 0.972120
0.972120 0.972120 0.968246
0.972120 0.972120 0.968246
0.972120 0.972120 0.968246
0.972120 0.972120 0.968246
0.405513 0.405513 0.972120
0.405513 0.405513 0.972120
0.405513 0.405513 0.972120
0.474904 0.405513 0.972120
0.703083 0.416233 0.972120
0.972120 0.506475 0.972120
0.972120 0.506475 0.972120
0.972120 0.506475 0.972120
0.972120 0.506475 0.972120
0.405513 0.405513 0.972120
0.405513 0.405513 0.972120
0.405513 0.405513 0.972120
0.474904 0.405513 0.972120
0.703083 0.416233 0.972120
0.972120 0.506475 0.972120
0.972120 0.506475 0.972120
0.972120 0.506475 0.972120
0.972120 0.506475 0.972120
0.405513 0.405513 0.972120
0.405513 0.405513 0.972120
0.405513 0.405513 0.972120
0.471185 0.405513 0.972120
0.700491 0.437706 0.972120
0.972120 0.523455 0.972120
0.972120 0.523455 0.972120
0.972120 0.523455 0.972120
0.972120 0.523455 0.972120
0.405513 0.440679 0.972120
0.405513 0.440679 0.972120
0.405513 0.444907 0.972120
0.459714 0.457393 0.972120
0.692577 0.495775 0.972120
0.972120 0.573563 0.972120
0.972120 0.573563 0.972120
0.972120 0.573563 0.972120
0.972120 0.573563 0.972120
0.405513 0.613494 0.972120
0.405513 0.613494 0.972120
0.405513 0.616712 0.972120
0.419133 0.626310 0.972120
0.665650 0.656651 0.972120
0.972120 0.723969 0.972120
0.972120 0.723969 0.972120
0.972120 0.723969 0.972120
0.972120 0.723969 0.972120
0.405513 0.904702 0.972120
0.405513 0.904702 0.972120
0.405513 0.907678 0.972120
0.405513 0.916594 0.972120
0.628552 0.945175 0.972120
0.972120 0.972120 0.968246
0.972120 0.972120 0.968246
0.972120 0.972120 0.968246
0.972120 0.972120 0.968246
0.405513 0.904702 0.972120
0.405513 0.904702 0.972120
0.405513 0.907678 0.972120
0.405513 0.916594 0.972120
0.628552 0.945175 0.972120
0.972120 0.972120 0.968246
0.972120 0.972120 0.968246
0.972120 0.972120 0.968246
0.972120 0.972120 0.968246
0.405513 0.904702 0.972120
0.405513 0.904702 0.972120
0.405513 0.907678 0.972120
0.405513 0.916594 0.972120
0.628552 0.945175 0.972120
0.972120 0.972120 0.968246
0.972120 0.972120 0.968246
0.972120 0.972120 0.968246
0.972120 0.972120 0.968246
0.405513 0.904702 0.972120
0.405513 0.904702 0.972120
0.405513 0.907678 0.972120
0.405513 0.916594 0.972120
0.628552 0.945175 0.972120
0.972120 0.972120 0.968246
0.972120 0.972120 0.968246
0.972120 0.972120 0.968246
0.972120 0.972120 0.968246
0.405513 0.405513 0.972120
0.405513 0.405513 0.972120
0.405513 0.405513 0.972120
0.474904 0.405513 0.972120
0.703083 0.416233 0.972120
0.972120 0.506475 0.972120
0.972120 0.506475 0.972120
0.972120 0.506475 0.972120
0.972120 0.506475 0.972120
0.405513 0.405513 0.972120
0.405513 0.405513 0.972120
0.405513 0.405513 0.972120
0.474904 0.405513 0.972120
0.703083 0.416233 0.972120
0.972120 0.506475 0.972120
0.972120 0.506475 0.972120
0.972120 0.506475 0.972120
0.972120 0.506475 0.972120
0.405513 0.405513 0.972120
0.405513 0.405513 0.972120
0.405513 0.405513 0.972120
0.471185 0.405513 0.972120
0.700491 0.437706 0.972120
0.972120 0.523455 0.972120
0.972120 0.523455 0.972120
0.972120 0.523455 0.972120
0.972120 0.523455 0.972120
0.405513 0.440679 0.972120
0.405513 0.440679 0.972120
0.405513 0.444907 0.972120
0.459714 0.457393 0.972120
0.692577 0.495775 0.972120
0.972120 0.573563 0.972120
0.972120 0.573563 0.972120
0.972120 0.573563 0.972120
0.972120 0.573563 0.972120
0.405513 0.613494 0.972120
0.405513 0.613494 0.972120
0.405513 0.616712 0.972120
0.419133 0.626310 0.972120
0.665650 0.656651 0.972120
0.972120 0.723969 0.972120
0.972120 0.723969 0.972120
0.972120 0.723969 0.972120
0.972120 0.723969 0.972120
0.405513 0.904702 0.972120
0.405513 0.904702 0.972120
0.405513 0.907678 0.972120
0.405513 0.916594 0.972120
0.628552 0.945175 0.972120
0.972120 0.972120 0.968246
0.972120 0.972120 0.968246
0.972120 0.972120 0.968246
0.972120 0.972120 0.968246
0.405513 0.904702 0.972120
0.405513 0.904702 0.972120
0.405513 0.907678 0.972120
0.405513 0.916594 0.972120
0.628552 0.945175 0.972120
0.972120 0.972120 0.968246
0.972120 0.972120 0.968246
0.972120 0.972120 0.968246
0.972120 0.972120 0.968246
0.405513 0.904702 0.972120
0.405513 0.904702 0.972120
0.405513 0.907678 0.972120
0.405513 0.916594 0.972120
0.628552 0.945175 0.972120
0.972120 0.972120 0.968246
0.972120 0.972120 0.968246
0.972120 0.972120 0.968246
0.972120 0.972120 0.968246
0.405513 0.904702 0.972120
0.405513 0.904702 0.972120
0.405513 0.907678 0.972120
0.405513 0.916594 0.972120
0.628552 0.945175 0.972120
0.972120 0.972120 0.968246
0.972120 0.972120 0.968246
0.972120 0.972120 0.968246
0.972120 0.972120 0.968246
