public/luts/VLog_to_AutumnBreeze.cube
TITLE "Autumn Breeze V-Log (Film Emulation)"
LUT_3D_SIZE 33
DOMAIN_MIN 0.0 0.0 0.0
DOMAIN_MAX 1.0 1.0 1.0
0.405513 0.405513 0.405513
0.405513 0.405513 0.405513
0.405513 0.405513 0.405513
0.405513 0.405513 0.405513
0.405513 0.405513 0.405513
0.412217 0.406471 0.405513
0.418831 0.407432 0.405513
0.426802 0.408612 0.405513
0.437256 0.410195 0.405513
0.450866 0.412315 0.405513
0.468427 0.415150 0.405513
0.490852 0.418931 0.405513
0.519163 0.423960 0.405513
0.554577 0.430619 0.405513
0.604345 0.439391 0.405513
0.664050 0.450875 0.405513
0.734904 0.465791 0.405513
0.828840 0.484984 0.405513
0.936965 0.509421 0.405513
0.972120 0.540166 0.405513
0.972120 0.546164 0.405513
0.972120 0.546164 0.405513
0.972120 0.546164 0.405513
0.972120 0.546164 0.405513
0.972120 0.546164 0.405513
0.972120 0.546164 0.405513
0.972120 0.546164 0.405513
0.972120 0.546164 0.405513
0.972120 0.546164 0.405513
0.972120 0.546164 0.405513
0.972120 0.546164 0.405513
0.972120 0.546164 0.405513
0.972120 0.546164 0.405513
0.405513 0.405513 0.405513
0.405513 0.405513 0.405513
0.405513 0.405513 0.405513
0.405513 0.405513 0.405513
0.405513 0.405513 0.405513
0.412217 0.406471 0.405513
0.418831 0.407432 0.405513
0.426802 0.408612 0.405513
0.437256 0.410195 0.405513
0.450866 0.412315 0.405513
0.468427 0.415150 0.405513
0.490852 0.418931 0.405513
0.519163 0.423960 0.405513
0.554577 0.430619 0.405513
0.604345 0.439391 0.405513
0.664050 0.450875 0.405513
0.734904 0.465791 0.405513
0.828840 0.484984 0.405513
0.936965 0.509421 0.405513
0.972120 0.540166 0.405513
0.972120 0.546164 0.405513
0.972120 0.546164 0.405513
0.972120 0.546164 0.405513
0.972120 0.546164 0.405513
0.972120 0.546164 0.405513
0.972120 0.546164 0.405513
0.972120 0.546164 0.405513
0.972120 0.546164 0.405513
0.972120 0.546164 0.405513
0.972120 0.546164 0.405513
0.972120 0.546164 0.405513
0.972120 0.546164 0.405513
0.972120 0.546164 0.405513
0.405513 0.405513 0.405513
0.405513 0.405513 0.405513
0.405513 0.405513 0.405513
0.405513 0.405513 0.405513
0.405513 0.405513 0.405513
0.412217 0.406471 0.405513
0.418831 0.407432 0.405513
0.426802 0.408612 0.405513
0.437256 0.410195 0.405513
0.450866 0.412315 0.405513
0.468427 0.415150 0.405513
0.490852 0.418931 0.405513
0.519163 0.423960 0.405513
0.554577 0.430619 0.405513
0.604345 0.439391 0.405513
0.664050 0.450875 0.405513
0.734904 0.465791 0.405513
0.828840 0.484984 0.405513
0.936965 0.509421 0.405513
0.972120 0.540166 0.405513
0.972120 0.546164 0.405513
0.972120 0.546164 0.405513
0.972120 0.546164 0.405513
0.972120 0.546164 0.405513
0.972120 0.546164 0.405513
0.972120 0.546164 0.405513
0.972120 0.546164 0.405513
0.972120 0.546164 0.405513
0.972120 0.546164 0.405513
0.972120 0.546164 0.405513
0.972120 0.546164 0.405513
0.972120 0.546164 0.405513
0.972120 0.546164 0.405513
0.405513 0.405513 0.405513
0.405513 0.405513 0.405513
0.405513 0.405513 0.405513
0.405513 0.405513 0.405513
0.405513 0.405513 0.405513
0.412217 0.406471 0.405513
0.418831 0.407432 0.405513
0.426802 0.408612 0.405513
0.437256 0.410195 0.405513
0.450866 0.412315 0.405513
0.468427 0.415150 0.405513
0.490852 0.418931 0.405513
0.519163 0.423960 0.405513
0.554577 0.430619 0.405513
0.604345 0.439391 0.405513
0.664050 0.450875 0.405513
0.734904 0.465791 0.405513
0.828840 0.484984 0.405513
0.936965 0.509421 0.405513
0.972120 0.540166 0.405513
0.972120 0.546164 0.405513
0.972120 0.546164 0.405513
0.972120 0.546164 0.405513
0.972120 0.546164 0.405513
0.972120 0.546164 0.405513
0.972120 0.546164 0.405513
0.972120 0.546164 0.405513
0.972120 0.546164 0.405513
0.972120 0.546164 0.405513
0.972120 0.546164 0.405513
0.972120 0.546164 0.405513
0.972120 0.546164 0.405513
0.972120 0.546164 0.405513
0.405513 0.405513 0.405513
0.405513 0.405513 0.405513
0.405513 0.405513 0.405513
0.405513 0.405513 0.405513
0.405513 0.405513 0.405513
0.412217 0.406471 0.405513
0.418831 0.407432 0.405513
0.426802 0.408612 0.405513
0.437256 0.410195 0.405513
0.450866 0.412315 0.405513
0.468427 0.415150 0.405513
0.490852 0.418931 0.405513
0.519163 0.423960 0.405513
0.554577 0.430619 0.405513
0.604345 0.439391 0.405513
0.664050 0.450875 0.405513
0.734904 0.465791 0.405513
0.828840 0.484984 0.405513
0.936965 0.509421 0.405513
0.972120 0.540166 0.405513
0.972120 0.546164 0.405513
0.972120 0.546164 0.405513
0.972120 0.546164 0.405513
0.972120 0.546164 0.405513
0.972120 0.546164 0.405513
0.972120 0.546164 0.405513
0.972120 0.546164 0.405513
0.972120 0.546164 0.405513
0.972120 0.546164 0.405513
0.972120 0.546164 0.405513
0.972120 0.546164 0.405513
0.972120 0.546164 0.405513
0.972120 0.546164 0.405513
0.405513 0.410136 0.405513
0.405513 0.410136 0.405513
0.405513 0.410136 0.405513
0.405513 0.410136 0.405513
0.405513 0.410136 0.405513
0.411317 0.411081 0.405513
0.417949 0.412029 0.405513
0.425941 0.413193 0.405513
0.436421 0.414754 0.405513
0.450062 0.416846 0.405513
0.467660 0.419643 0.405513
0.490129 0.423375 0.405513
0.518489 0.428339 0.405513
0.553862 0.434915 0.405513
0.603704 0.443582 0.405513
0.663483 0.454935 0.405513
0.734407 0.469690 0.405513
0.828356 0.488692 0.405513
0.936553 0.512908 0.405513
0.972120 0.543405 0.405513
0.972120 0.549358 0.405513
0.972120 0.549358 0.405513
0.972120 0.549358 0.405513
0.972120 0.549358 0.405513
0.972120 0.549358 0.405513
0.972120 0.549358 0.405513
0.972120 0.549358 0.405513
0.972120 0.549358 0.405513
0.972120 0.549358 0.405513
0.972120 0.549358 0.405513
0.972120 0.549358 0.405513
0.972120 0.549358 0.405513
0.972120 0.549358 0.405513
0.405513 0.414726 0.405513
0.405513 0.414726 0.405513
0.405513 0.414726 0.405513
0.405513 0.414726 0.405513
0.405513 0.414726 0.405513
0.410410 0.415658 0.405513
0.417060 0.416593 0.405513
0.425072 0.417741 0.405513
0.435578 0.419281 0.405513
0.449250 0.421345 0.405513
0.466886 0.424106 0.405513
0.489400 0.427790 0.405513
0.517810 0.432691 0.405513
0.553217 0.439186 0.405513
0.603059 0.447751 0.405513
0.662911 0.458976 0.405513
0.733906 0.473574 0.405513
0.827868 0.492389 0.405513
0.936138 0.516387 0.405513
0.972120 0.546640 0.405513
0.972120 0.552549 0.405513
0.972120 0.552549 0.405513
0.972120 0.552549 0.405513
0.972120 0.552549 0.405513
0.972120 0.552549 0.405513
0.972120 0.552549 0.405513
0.972120 0.552549 0.405513
0.972120 0.552549 0.405513
0.972120 0.552549 0.405513
0.972120 0.552549 0.405513
0.972120 0.552549 0.405513
0.972120 0.552549 0.405513
0.972120 0.552549 0.405513
0.405513 0.420293 0.405513
0.405513 0.420293 0.405513
0.405513 0.420293 0.405513
0.405513 0.420293 0.405513
0.405513 0.420293 0.405513
0.409289 0.421209 0.405513
0.415961 0.422129 0.405513
0.423999 0.423259 0.405513
0.434536 0.424774 0.405513
0.448249 0.426806 0.405513
0.465932 0.429523 0.405513
0.488501 0.433150 0.405513
0.516973 0.437976 0.405513
0.552446 0.444376 0.405513
0.602263 0.452819 0.405513
0.662207 0.463891 0.405513
0.733289 0.478302 0.405513
0.827267 0.496894 0.405513
0.935627 0.520632 0.405513
0.972120 0.550591 0.405513
0.972120 0.556868 0.405513
0.972120 0.556868 0.405513
0.972120 0.556868 0.405513
0.972120 0.556868 0.405513
0.972120 0.556868 0.405513
0.972120 0.556868 0.405513
0.972120 0.556868 0.405513
0.972120 0.556868 0.405513
0.972120 0.556868 0.405513
0.972120 0.556868 0.405513
0.972120 0.556868 0.405513
0.972120 0.556868 0.405513
0.972120 0.556868 0.405513
0.405513 0.427650 0.405513
0.405513 0.427650 0.405513
0.405513 0.427650 0.405513
0.405513 0.427650 0.405513
0.405513 0.427650 0.405513
0.407773 0.428547 0.405513
0.414475 0.429448 0.405513
0.422548 0.430554 0.405513
0.433129 0.432038 0.405513
0.446895 0.434027 0.405513
0.464642 0.436688 0.405513
0.487286 0.440242 0.405513
0.515842 0.444973 0.405513
0.551407 0.451250 0.405513
0.601189 0.459536 0.405513
0.661257 0.470411 0.405513
0.732457 0.484581 0.405513
0.826456 0.502882 0.405513
0.934937 0.526281 0.405513
0.972120 0.556188 0.405513
0.972120 0.562852 0.405513
0.972120 0.562852 0.405513
0.972120 0.562852 0.405513
0.972120 0.562852 0.405513
0.972120 0.562852 0.405513
0.972120 0.562852 0.405513
0.972120 0.562852 0.405513
0.972120 0.562852 0.405513
0.972120 0.562852 0.405513
0.972120 0.562852 0.405513
0.972120 0.562852 0.405513
0.972120 0.562852 0.405513
0.972120 0.562852 0.405513
0.405513 0.437320 0.405513
0.405513 0.437320 0.405513
0.405513 0.437320 0.405513
0.405513 0.437320 0.405513
0.405513 0.437320 0.405513
0.405719 0.438192 0.405513
0.412463 0.439069 0.405513
0.420583 0.440144 0.405513
0.431224 0.441588 0.405513
0.445063 0.443524 0.405513
0.462898 0.446115 0.405513
0.485643 0.449577 0.405513
0.514313 0.454187 0.405513
0.550003 0.460308 0.405513
0.599739 0.468394 0.405513
0.659974 0.479019 0.405513
0.731334 0.492879 0.405513
0.825362 0.510809 0.405513
0.934008 0.533771 0.405513
0.972120 0.564243 0.405513
0.972120 0.570788 0.405513
0.972120 0.570788 0.405513
0.972120 0.570788 0.405513
0.972120 0.570788 0.405513
0.972120 0.570788 0.405513
0.972120 0.570788 0.405513
0.972120 0.570788 0.405513
0.972120 0.570788 0.405513
0.972120 0.570788 0.405513
0.972120 0.570788 0.405513
0.972120 0.570788 0.405513
0.972120 0.570788 0.405513
0.972120 0.570788 0.405513
0.405513 0.449940 0.405513
0.405513 0.449940 0.405513
0.405513 0.449940 0.405513
0.405513 0.449940 0.405513
0.405513 0.449940 0.405513
0.405513 0.450782 0.405513
0.409733 0.451628 0.405513
0.417919 0.452666 0.405513
0.428642 0.454061 0.405513
0.442581 0.455931 0.405513
0.460535 0.458435 0.405513
0.483419 0.461782 0.405513
0.512245 0.466242 0.405513
0.548104 0.472168 0.405513
0.597777 0.480006 0.405513
0.658241 0.490316 0.405513
0.729817 0.503788 0.405513
0.823885 0.521247 0.405513
0.932753 0.543656 0.405513
0.972120 0.574867 0.405513
0.972120 0.581260 0.405513
0.972120 0.581260 0.405513
0.972120 0.581260 0.405513
0.972120 0.581260 0.405513
0.972120 0.581260 0.405513
0.972120 0.581260 0.405513
0.972120 0.581260 0.405513
0.972120 0.581260 0.405513
0.972120 0.581260 0.405513
0.972120 0.581260 0.405513
0.972120 0.581260 0.405513
0.972120 0.581260 0.405513
0.972120 0.581260 0.405513
0.405513 0.466272 0.405513
0.405513 0.466272 0.405513
0.405513 0.466272 0.405513
0.405513 0.466272 0.405513
0.405513 0.466272 0.405513
0.405513 0.467077 0.405513
0.406020 0.467887 0.405513
0.414296 0.468880 0.405513
0.425132 0.470215 0.405513
0.439209 0.472005 0.405513
0.457328 0.474404 0.405513
0.480402 0.477611 0.405513
0.509442 0.481889 0.405513
0.545533 0.487577 0.405513
0.595122 0.495110 0.405513
0.655896 0.505035 0.405513
0.727767 0.518027 0.405513
0.821891 0.534903 0.405513
0.931060 0.557067 0.405513
0.972120 0.588794 0.405513
0.972120 0.594996 0.405513
0.972120 0.594996 0.405513
0.972120 0.594996 0.405513
0.972120 0.594996 0.405513
0.972120 0.594996 0.405513
0.972120 0.594996 0.405513
0.972120 0.594996 0.405513
0.972120 0.594996 0.405513
0.972120 0.594996 0.405513
0.972120 0.594996 0.405513
0.972120 0.594996 0.405513
0.972120 0.594996 0.405513
0.972120 0.594996 0.405513
0.405513 0.487201 0.405513
0.405513 0.487201 0.405513
0.405513 0.487201 0.405513
0.405513 0.487201 0.405513
0.405513 0.487201 0.405513
0.405513 0.487963 0.405513
0.405513 0.488729 0.405513
0.409353 0.489670 0.405513
0.420347 0.490934 0.405513
0.434615 0.492630 0.405513
0.452962 0.494904 0.405513
0.476300 0.497946 0.405513
0.505635 0.502007 0.405513
0.542044 0.507413 0.405513
0.591521 0.514583 0.405513
0.652721 0.524045 0.405513
0.724995 0.536460 0.405513
0.819194 0.552627 0.405513
0.928773 0.576466 0.405513
0.972120 0.606913 0.405513
0.972120 0.612881 0.405513
0.972120 0.612881 0.405513
0.972120 0.612881 0.405513
0.972120 0.612881 0.405513
0.972120 0.612881 0.405513
0.972120 0.612881 0.405513
0.972120 0.612881 0.405513
0.972120 0.612881 0.405513
0.972120 0.612881 0.405513
0.972120 0.612881 0.405513
0.972120 0.612881 0.405513
0.972120 0.612881 0.405513
0.972120 0.612881 0.405513
0.405513 0.513721 0.405513
0.405513 0.513721 0.405513
0.405513 0.513721 0.405513
0.405513 0.513721 0.405513
0.405513 0.513721 0.405513
0.405513 0.514435 0.405513
0.405513 0.515151 0.405513
0.405513 0.516032 0.405513
0.413792 0.517215 0.405513
0.428331 0.518804 0.405513
0.446998 0.520934 0.405513
0.470704 0.523787 0.405513
0.500449 0.527599 0.405513
0.537300 0.532679 0.405513
0.586625 0.539426 0.405513
0.648412 0.548349 0.405513
0.721237 0.561059 0.405513
0.815542 0.578665 0.405513
0.925680 0.601349 0.405513
0.972120 0.630274 0.405513
0.972120 0.635963 0.405513
0.972120 0.635963 0.405513
0.972120 0.635963 0.405513
0.972120 0.635963 0.405513
0.972120 0.635963 0.405513
0.972120 0.635963 0.405513
0.972120 0.635963 0.405513
0.972120 0.635963 0.405513
0.972120 0.635963 0.405513
0.972120 0.635963 0.405513
0.972120 0.635963 0.405513
0.972120 0.635963 0.405513
0.972120 0.635963 0.405513
0.405513 0.546921 0.405513
0.405513 0.546921 0.405513
0.405513 0.546921 0.405513
0.405513 0.546921 0.405513
0.405513 0.546921 0.405513
0.405513 0.547580 0.405513
0.405513 0.548242 0.405513
0.405513 0.549056 0.405513
0.405513 0.550150 0.405513
0.419679 0.551619 0.405513
0.438802 0.553591 0.405513
0.463030 0.556620 0.405513
0.493354 0.560691 0.405513
0.530823 0.566116 0.405513
0.579946 0.573321 0.405513
0.642549 0.582847 0.405513
0.716136 0.595373 0.405513
0.810589 0.611730 0.405513
0.921492 0.632915 0.405513
0.972120 0.660084 0.405513
0.972120 0.665446 0.405513
0.972120 0.665446 0.405513
0.972120 0.665446 0.405513
0.972120 0.665446 0.405513
0.972120 0.665446 0.405513
0.972120 0.665446 0.405513
0.972120 0.665446 0.405513
0.972120 0.665446 0.405513
0.972120 0.665446 0.405513
0.972120 0.665446 0.405513
0.972120 0.665446 0.405513
0.972120 0.665446 0.405513
0.972120 0.665446 0.405513
0.405513 0.593000 0.405513
0.405513 0.593000 0.405513
0.405513 0.593000 0.405513
0.405513 0.593000 0.405513
0.405513 0.593000 0.405513
0.405513 0.593686 0.405513
0.405513 0.594375 0.405513
0.405513 0.595222 0.405513
0.405513 0.596361 0.405513
0.407664 0.597890 0.405513
0.427452 0.599943 0.405513
0.452435 0.602693 0.405513
0.483588 0.606374 0.405513
0.521937 0.611286 0.405513
0.570791 0.617824 0.405513
0.634539 0.626494 0.405513
0.709187 0.637934 0.405513
0.803853 0.652939 0.405513
0.915810 0.672473 0.405513
0.972120 0.697681 0.405513
0.972120 0.702675 0.405513
0.972120 0.702675 0.405513
0.972120 0.702675 0.405513
0.972120 0.702675 0.405513
0.972120 0.702675 0.405513
0.972120 0.702675 0.405513
0.972120 0.702675 0.405513
0.972120 0.702675 0.405513
0.972120 0.702675 0.405513
0.972120 0.702675 0.405513
0.972120 0.702675 0.405513
0.972120 0.702675 0.405513
0.972120 0.702675 0.405513
0.405513 0.649769 0.405513
0.405513 0.649769 0.405513
0.405513 0.649769 0.405513
0.405513 0.649769 0.405513
0.405513 0.649769 0.405513
0.405513 0.650379 0.405513
0.405513 0.650991 0.405513
0.405513 0.651745 0.405513
0.405513 0.652759 0.405513
0.405513 0.654121 0.405513
0.411544 0.655950 0.405513
0.437653 0.658403 0.405513
0.470027 0.661689 0.405513
0.509655 0.666083 0.405513
0.558153 0.671944 0.405513
0.623539 0.679735 0.405513
0.699686 0.690051 0.405513
0.794661 0.703639 0.405513
0.908082 0.721422 0.405513
0.972120 0.746431 0.405513
0.972120 0.753429 0.405513
0.972120 0.753429 0.405513
0.972120 0.753429 0.405513
0.972120 0.753429 0.405513
0.972120 0.753429 0.405513
0.972120 0.753429 0.405513
0.972120 0.753429 0.405513
0.972120 0.753429 0.405513
0.972120 0.753429 0.405513
0.972120 0.753429 0.405513
0.972120 0.753429 0.405513
0.972120 0.753429 0.405513
0.972120 0.753429 0.405513
0.405513 0.717378 0.405513
0.405513 0.717378 0.405513
0.405513 0.717378 0.405513
0.405513 0.717378 0.405513
0.405513 0.717378 0.405513
0.405513 0.717914 0.405513
0.405513 0.718454 0.405513
0.405513 0.719117 0.405513
0.405513 0.720009 0.405513
0.405513 0.721209 0.405513
0.405513 0.722821 0.405513
0.416701 0.724986 0.405513
0.450944 0.727888 0.405513
0.492494 0.731774 0.405513
0.542310 0.737020 0.405513
0.608315 0.744906 0.405513
0.686615 0.755360 0.405513
0.782054 0.769150 0.405513
0.897533 0.787232 0.405513
0.972120 0.817910 0.405513
0.972120 0.824126 0.405513
0.972120 0.824126 0.405513
0.972120 0.824126 0.405513
0.972120 0.824126 0.405513
0.972120 0.824126 0.405513
0.972120 0.824126 0.405513
0.972120 0.824126 0.405513
0.972120 0.824126 0.405513
0.972120 0.824126 0.405513
0.972120 0.824126 0.405513
0.972120 0.824126 0.405513
0.972120 0.824126 0.405513
0.972120 0.824126 0.405513
0.405513 0.805137 0.405513
0.405513 0.805137 0.405513
0.405513 0.805137 0.405513
0.405513 0.805137 0.405513
0.405513 0.805137 0.405513
0.405513 0.805663 0.405513
0.405513 0.806193 0.405513
0.405513 0.806844 0.405513
0.405513 0.807720 0.405513
0.405513 0.808897 0.405513
0.405513 0.810481 0.405513
0.405513 0.812607 0.405513
0.423525 0.815460 0.405513
0.468111 0.819282 0.405513
0.520858 0.824395 0.405513
0.586998 0.831216 0.405513
0.668480 0.840291 0.405513
0.768378 0.854264 0.405513
0.894823 0.875411 0.405513
0.972120 0.902876 0.405513
0.972120 0.908340 0.405513
0.972120 0.908340 0.405513
0.972120 0.908340 0.405513
0.972120 0.908340 0.405513
0.972120 0.908340 0.405513
0.972120 0.908340 0.405513
0.972120 0.908340 0.405513
0.972120 0.908340 0.405513
0.972120 0.908340 0.405513
0.972120 0.908340 0.405513
0.972120 0.908340 0.405513
0.972120 0.908340 0.405513
0.972120 0.908340 0.405513
0.405513 0.909251 0.405513
0.405513 0.909251 0.405513
0.405513 0.909251 0.405513
0.405513 0.909251 0.405513
0.405513 0.909251 0.405513
0.405513 0.909699 0.405513
0.405513 0.910151 0.405513
0.405513 0.910706 0.405513
0.405513 0.911453 0.405513
0.405513 0.912458 0.405513
0.405513 0.913809 0.405513
0.405513 0.915626 0.405513
0.405513 0.918641 0.405513
0.438135 0.923030 0.405513
0.499131 0.928899 0.405513
0.571104 0.936729 0.405513
0.661308 0.947141 0.405513
0.765675 0.960931 0.405513
0.892611 0.972120 0.405513
0.972120 0.972120 0.405513
0.972120 0.972120 0.405513
0.972120 0.972120 0.405513
0.972120 0.972120 0.405513
0.972120 0.972120 0.405513
0.972120 0.972120 0.405513
0.972120 0.972120 0.405513
0.972120 0.972120 0.405513
0.972120 0.972120 0.405513
0.972120 0.972120 0.405513
0.972120 0.972120 0.405513
0.972120 0.972120 0.405513
0.972120 0.972120 0.405513
0.972120 0.972120 0.405513
0.405513 0.928615 0.405513
0.405513 0.928615 0.405513
0.405513 0.928615 0.405513
0.405513 0.928615 0.405513
0.405513 0.928615 0.405513
0.405513 0.929052 0.405513
0.405513 0.929490 0.405513
0.405513 0.930120 0.405513
0.405513 0.931096 0.405513
0.405513 0.932409 0.405513
0.405513 0.934172 0.405513
0.405513 0.936542 0.405513
0.405513 0.939721 0.405513
0.437278 0.943981 0.405513
0.498403 0.949679 0.405513
0.570397 0.957285 0.405513
0.660722 0.967406 0.405513
0.765123 0.972120 0.405513
0.892160 0.972120 0.405513
0.972120 0.972120 0.405513
0.972120 0.972120 0.405513
0.972120 0.972120 0.405513
0.972120 0.972120 0.405513
0.972120 0.972120 0.405513
0.972120 0.972120 0.405513
0.972120 0.972120 0.405513
0.972120 0.972120 0.405513
0.972120 0.972120 0.405513
0.972120 0.972120 0.405513
0.972120 0.972120 0.405513
0.972120 0.972120 0.405513
0.972120 0.972120 0.405513
0.972120 0.972120 0.405513
0.405513 0.928615 0.405513
0.405513 0.928615 0.405513
0.405513 0.928615 0.405513
0.405513 0.928615 0.405513
0.405513 0.928615 0.405513
0.405513 0.929052 0.405513
0.405513 0.929490 0.405513
0.405513 0.930120 0.405513
0.405513 0.931096 0.405513
0.405513 0.932409 0.405513
0.405513 0.934172 0.405513
0.405513 0.936542 0.405513
0.405513 0.939721 0.405513
0.437278 0.943981 0.405513
0.498403 0.949679 0.405513
0.570397 0.957285 0.405513
0.660722 0.967406 0.405513
0.765123 0.972120 0.405513
0.892160 0.972120 0.405513
0.972120 0.972120 0.405513
0.972120 0.972120 0.405513
0.972120 0.972120 0.405513
0.972120 0.972120 0.405513
0.972120 0.972120 0.405513
0.972120 0.972120 0.405513
0.972120 0.972120 0.405513
0.972120 0.972120 0.405513
0.972120 0.972120 0.405513
0.972120 0.972120 0.405513
0.972120 0.972120 0.405513
0.972120 0.972120 0.405513
0.972120 0.972120 0.405513
0.972120 0.972120 0.405513
0.405513 0.928615 0.405513
0.405513 0.928615 0.405513
0.405513 0.928615 0.405513
0.405513 0.928615 0.405513
0.405513 0.928615 0.405513
0.405513 0.929052 0.405513
0.405513 0.929490 0.405513
0.405513 0.930120 0.405513
0.405513 0.931096 0.405513
0.405513 0.932409 0.405513
0.405513 0.934172 0.405513
0.405513 0.936542 0.405513
0.405513 0.939721 0.405513
0.437278 0.943981 0.405513
0.498403 0.949679 0.405513
0.570397 0.957285 0.405513
0.660722 0.967406 0.405513
0.765123 0.972120 0.405513
0.892160 0.972120 0.405513
0.972120 0.972120 0.405513
0.972120 0.972120 0.405513
0.972120 0.972120 0.405513
0.972120 0.972120 0.405513
0.972120 0.972120 0.405513
0.972120 0.972120 0.405513
0.972120 0.972120 0.405513
0.972120 0.972120 0.405513
0.972120 0.972120 0.405513
0.972120 0.972120 0.405513
0.972120 0.972120 0.405513
0.972120 0.972120 0.405513
0.972120 0.972120 0.405513
0.972120 0.972120 0.405513
0.405513 0.928615 0.405513
0.405513 0.928615 0.405513
0.405513 0.928615 0.405513
0.405513 0.928615 0.405513
0.405513 0.928615 0.405513
0.405513 0.929052 0.405513
0.405513 0.929490 0.405513
0.405513 0.930120 0.405513
0.405513 0.931096 0.405513
0.405513 0.932409 0.405513
0.405513 0.934172 0.405513
0.405513 0.936542 0.405513
0.405513 0.939721 0.405513
0.437278 0.943981 0.405513
0.498403 0.949679 0.405513
0.570397 0.957285 0.405513
0.660722 0.967406 0.405513
0.765123 0.972120 0.405513
0.892160 0.972120 0.405513
0.972120 0.972120 0.405513
0.972120 0.972120 0.405513
0.972120 0.972120 0.405513
0.972120 0.972120 0.405513
0.972120 0.972120 0.405513
0.972120 0.972120 0.405513
0.972120 0.972120 0.405513
0.972120 0.972120 0.405513
0.972120 0.972120 0.405513
0.972120 0.972120 0.405513
0.972120 0.972120 0.405513
0.972120 0.972120 0.405513
0.972120 0.972120 0.405513
0.972120 0.972120 0.405513
0.405513 0.928615 0.405513
0.405513 0.928615 0.405513
0.405513 0.928615 0.405513
0.405513 0.928615 0.405513
0.405513 0.928615 0.405513
0.405513 0.929052 0.405513
0.405513 0.929490 0.405513
0.405513 0.930120 0.405513
0.405513 0.931096 0.405513
0.405513 0.932409 0.405513
0.405513 0.934172 0.405513
0.405513 0.936542 0.405513
0.405513 0.939721 0.405513
0.437278 0.943981 0.405513
0.498403 0.949679 0.405513
0.570397 0.957285 0.405513
0.660722 0.967406 0.405513
0.765123 0.972120 0.405513
0.892160 0.972120 0.405513
0.972120 0.972120 0.405513
0.972120 0.972120 0.405513
0.972120 0.972120 0.405513
0.972120 0.972120 0.405513
0.972120 0.972120 0.405513
0.972120 0.972120 0.405513
0.972120 0.972120 0.405513
0.972120 0.972120 0.405513
0.972120 0.972120 0.405513
0.972120 0.972120 0.405513
0.972120 0.972120 0.405513
0.972120 0.972120 0.405513
0.972120 0.972120 0.405513
0.972120 0.972120 0.405513
0.405513 0.928615 0.405513
0.405513 0.928615 0.405513
0.405513 0.928615 0.405513
0.405513 0.928615 0.405513
0.405513 0.928615 0.405513
0.405513 0.929052 0.405513
0.405513 0.929490 0.405513
0.405513 0.930120 0.405513
0.405513 0.931096 0.405513
0.405513 0.932409 0.405513
0.405513 0.934172 0.405513
0.405513 0.936542 0.405513
0.405513 0.939721 0.405513
0.437278 0.943981 0.405513
0.498403 0.949679 0.405513
0.570397 0.957285 0.405513
0.660722 0.967406 0.405513
0.765123 0.972120 0.405513
0.892160 0.972120 0.405513
0.972120 0.972120 0.405513
0.972120 0.972120 0.405513
0.972120 0.972120 0.405513
0.972120 0.972120 0.405513
0.972120 0.972120 0.405513
0.972120 0.972120 0.405513
0.972120 0.972120 0.405513
0.972120 0.972120 0.405513
0.972120 0.972120 0.405513
0.972120 0.972120 0.405513
0.972120 0.972120 0.405513
0.972120 0.972120 0.405513
0.972120 0.972120 0.405513
0.972120 0.972120 0.405513
0.405513 0.928615 0.405513
0.405513 0.928615 0.405513
0.405513 0.928615 0.405513
0.405513 0.928615 0.405513
0.405513 0.928615 0.405513
0.405513 0.929052 0.405513
0.405513 0.929490 0.405513
0.405513 0.930120 0.405513
0.405513 0.931096 0.405513
0.405513 0.932409 0.405513
0.405513 0.934172 0.405513
0.405513 0.936542 0.405513
0.405513 0.939721 0.405513
0.437278 0.943981 0.405513
0.498403 0.949679 0.405513
0.570397 0.957285 0.405513
0.660722 0.967406 0.405513
0.765123 0.972120 0.405513
0.892160 0.972120 0.405513
0.972120 0.972120 0.405513
0.972120 0.972120 0.405513
0.972120 0.972120 0.405513
0.972120 0.972120 0.405513
0.972120 0.972120 0.405513
0.972120 0.972120 0.405513
0.972120 0.972120 0.405513
